X:1
T:Dancing On The Green
T:Dancing On The Green
T:Michael Balfe
C:Michael Balfe
L:1/8
M:4/4
K:C
V:1 treble 
V:1
 fe[Q:1/8=150] .e^fe^c fdB^G | AB^cA B^GE^C | DE^F^G AB^cA | (3B^cB (3A^G^F E2 E2 | e^fe^c fdB^G | %5
 AB^cA B^GE^C | D^FA^c dc (3BA^G | B2 A2 A2 z2 :| A^GAB ^c^Bcd | e2 (3e^f^g ae^ce | a^g^fe d^cBA | %11
 (3B^cB (3A^G^F E2 ED | ^CAEA BAEA | ^FADA dB^GB | A^fed ^cBA^G | B2 A2 A2 z2 :| %16

